X:1
T:Title
%%score ( 1 2 ) ( 3 4 )
L:1/8
M:3/4
K:G
V:1 treble nm="Choir Aahs, Staff"
V:2 treble 
V:3 bass nm="Choir Aahs, Staff-1"
V:4 bass 
V:1
 G2 [GB]4 | [FA]2 G4 | z2 c4 | [GB]2 [GB]2 [FA]2 | D2 [DG]2 [EA]2 | [Cc]2 [DB]4 | [CA]2 [B,G]4 | %7
w: By~Samuel~Sebastian~Wesley *|||||||
 [Ee]2 [Ad]4 | [Fc]2 [GB]4 | [EG]2 [EG]2 [DF]2 | [^CE]2 D4 | [A,D]2 [DG]4 | [B,G]2 [Ec]2 [DB]2 | %13
w: ||||||
 [DA]2 [DG]4 |] %14
w: |
V:2
 x6 | x6 | G2 G2 A2 | x6 | x6 | x6 | x6 | x6 | x6 | x6 | x6 | x6 | x6 | x6 |] %14
V:3
 [G,B,]2 [G,D]4 | [D,C]2 [E,B,]4 | [E,B,]2 [E,E]2 [F,D]2 | [G,D]2 [D,D]4 | z2 G,4 | %5
 [E,G,]2 [D,G,]4 | [D,F,]2 [G,,G,]4 | [G,B,]2 [F,D]4 | [D,D]2 [G,D]4 | [G,,B,]2 [A,,A,]4 | %10
 [A,,G,]2 [D,F,]4 | [C,F,]2 [B,,G,]4 | z2 G,4 | [D,C]2 [G,,B,]4 |] %14
V:4
 x6 | x6 | x6 | x6 | [C,F,]2 B,,2 C,2 | x6 | x6 | x6 | x6 | x6 | x6 | x6 | [E,G,]2 C,2 D,2 | x6 |] %14

